X: 120501
T: Lovely Nancy
S: "Treoir" 
Z: B.Black
M: 6/8
L: 1/8
R: jig
K: G
B | dBd g2 g | efg dBG | BGG dGG | FAA ABc |
dBd g2 g | efg dBG | cde dBG | FEF G2 :|
A | BGG dGG | eGG dGG | BGG dGG | FAA A2 c |
BGG dGG | eGG d2 c | BAG AGA | BGG G2 :|
